X: 17999
T: Hughie Travers'
R: reel
M: 4/4
K: Gmajor
dB ~B2 ~B2 GB|d2 BG AGED|G2 B/c/d gaba|gedB A2 a/g/e|
dBBA B3 c|dG B/A/G AGED|GABd gaba|gedB G2:|
Bd d/d/d ed d/d/d|gdBd edBA|B/c/d- dB edef|gedB A/B/A GA|
Bd d/d/d ed B/c/d|gd d/d/d edBA|B/c/d ef g2 ba|gedB G2:|

